icons/line/refresh.svg

<svg width="24" height="24" viewBox="0 0 24 24" fill="none" xmlns="http://www.w3.org/2000/svg">
<path d="M18 14L18 10M18 10L21 13M18 10L15 13" stroke="currentColor" stroke-width="2" stroke-linecap="round" stroke-linejoin="round"/>
<path d="M6 10L6 14M6 14L9 11M6 14L3 11" stroke="currentColor" stroke-width="2" stroke-linecap="round" stroke-linejoin="round"/>
<path d="M18 14C18 17.3137 15.3137 20 12 20C10.223 20 8.62643 19.2275 7.52779 18" stroke="currentColor" stroke-width="2" stroke-linecap="round" stroke-linejoin="round"/>
<path d="M6.00002 10C6.00002 6.68629 8.68631 4 12 4C13.777 4 15.3736 4.7725 16.4722 6" stroke="currentColor" stroke-width="2" stroke-linecap="round" stroke-linejoin="round"/>
</svg>

<svg width="24" height="24" fill="none" xmlns="http://www.w3.org/2000/svg"><path d="M18 14v-4m0 0l3 3m-3-3l-3 3M6 10v4m0 0l3-3m-3 3l-3-3M18 14a6 6 0 01-10.472 4M6 10a6 6 0 0110.472-4" stroke="currentColor" stroke-width="2" stroke-linecap="round" stroke-linejoin="round"/></svg>
